X:50
T:The Cup of Tea
T:An Cupan Tae
R:Reel
M:C|
L:1/8
A:Ireland
K:D
A|BAGF GEEF | GEBE GEEA | BAGF GEEG | FDAG FDDA | 
BAGF GEEF | GEBE GEEA | BAGF GABc | dBAG FDD :|
A|~d2 (eg) fde(c|~d2) eg fBBc| ~d2 eg fdeB|  dBAG FDDA | 
~d2 (eg) fde(c|d)faf ~g2 fg| afge fdec | dBAG FDD :|
G| FAdA FABA| FAdA FEEG|FAdA FABc|dBAG FDDG|
FAdA FABA| FAdA feee| f2 ec dBAF | GBAG FDD :|
